src/icons/file-npm.svg

<svg width="16" height="16" viewBox="0 0 16 16" fill="none" xmlns="http://www.w3.org/2000/svg">
<path fill-rule="evenodd" clip-rule="evenodd" d="M2.27248 3.36502C2 3.8998 2 4.59987 2 6V10C2 11.4001 2 12.1002 2.27248 12.635C2.51217 13.1054 2.89462 13.4878 3.36502 13.7275C3.8998 14 4.59987 14 6 14H10C11.4001 14 12.1002 14 12.635 13.7275C13.1054 13.4878 13.4878 13.1054 13.7275 12.635C14 12.1002 14 11.4001 14 10V6C14 4.59987 14 3.8998 13.7275 3.36502C13.4878 2.89462 13.1054 2.51217 12.635 2.27248C12.1002 2 11.4001 2 10 2H6C4.59987 2 3.8998 2 3.36502 2.27248C2.89462 2.51217 2.51217 2.89462 2.27248 3.36502ZM5.6 12H7.2C7.48003 12 7.62004 12 7.727 11.9455C7.82108 11.8976 7.89757 11.8211 7.9455 11.727C8 11.62 8 11.48 8 11.2V6.8C8 6.51997 8 6.37996 8.0545 6.273C8.10243 6.17892 8.17892 6.10243 8.273 6.0545C8.37996 6 8.51997 6 8.8 6H9.2C9.48003 6 9.62004 6 9.727 6.0545C9.82108 6.10243 9.89757 6.17892 9.9455 6.273C10 6.37996 10 6.51997 10 6.8V11.3333C10 11.4883 10 11.5658 10.017 11.6294C10.0633 11.802 10.198 11.9367 10.3706 11.983C10.4342 12 10.5117 12 10.6667 12C10.9767 12 11.1317 12 11.2588 11.9659C11.6039 11.8735 11.8735 11.6039 11.9659 11.2588C12 11.1317 12 10.9767 12 10.6667V5.6C12 5.03995 12 4.75992 11.891 4.54601C11.7951 4.35785 11.6422 4.20487 11.454 4.10899C11.2401 4 10.9601 4 10.4 4H5.6C5.03995 4 4.75992 4 4.54601 4.10899C4.35785 4.20487 4.20487 4.35785 4.10899 4.54601C4 4.75992 4 5.03995 4 5.6V10.4C4 10.9601 4 11.2401 4.10899 11.454C4.20487 11.6422 4.35785 11.7951 4.54601 11.891C4.75992 12 5.03995 12 5.6 12Z" fill="#F1667F"/>
</svg>

<svg xmlns="http://www.w3.org/2000/svg" width="16" height="16" fill="none"><path fill="#F1667F" fill-rule="evenodd" d="M2.272 3.365C2 3.9 2 4.6 2 6v4c0 1.4 0 2.1.272 2.635a2.5 2.5 0 0 0 1.093 1.092C3.9 14 4.6 14 6 14h4c1.4 0 2.1 0 2.635-.273a2.5 2.5 0 0 0 1.092-1.092C14 12.1 14 11.4 14 10V6c0-1.4 0-2.1-.273-2.635a2.5 2.5 0 0 0-1.092-1.093C12.1 2 11.4 2 10 2H6c-1.4 0-2.1 0-2.635.272a2.5 2.5 0 0 0-1.093 1.093M5.6 12h1.6c.28 0 .42 0 .527-.055a.5.5 0 0 0 .218-.218C8 11.62 8 11.48 8 11.2V6.8c0-.28 0-.42.055-.527a.5.5 0 0 1 .218-.218C8.38 6 8.52 6 8.8 6h.4c.28 0 .42 0 .527.054a.5.5 0 0 1 .218.219C10 6.38 10 6.52 10 6.8v4.533c0 .155 0 .233.017.296a.5.5 0 0 0 .354.354c.063.017.14.017.296.017.31 0 .465 0 .592-.034a1 1 0 0 0 .707-.707c.034-.127.034-.282.034-.592V5.6c0-.56 0-.84-.109-1.054a1 1 0 0 0-.437-.437C11.24 4 10.96 4 10.4 4H5.6c-.56 0-.84 0-1.054.109a1 1 0 0 0-.437.437C4 4.76 4 5.04 4 5.6v4.8c0 .56 0 .84.109 1.054a1 1 0 0 0 .437.437C4.76 12 5.04 12 5.6 12" clip-rule="evenodd"/></svg>
